X: 9362
T: Dancing In The Sky
R: reel
M: 4/4
K: Aminor
|:e2 A2 eage|cded cAAg|eAAA eage|cded cA3|
A2E2 eage|cded cAc/2c/2d|e^fge ^gaaa|aged cA^ga|
e2 AA eage|cded cAc/2c/2d|e cee Bee A|ee GAA FAA|
EFGA cdeg|gage gA^cd|e^fge ^gaaa|aged cAcd|
eAA/2A/2A aAbA|c'AAa gedg|eAAg AAaA|bAAa gfed|
eAA/2A/2A aAbA|c'AAa gede|gg2g gggg|ffff fggf|
eAA/2A/2A aAbA|c'AAa gedg|eAAA gAAA|bAAA gedg|
ec'c'c' bc'2b|c'2bc' bag^a|agea ge^dg|e^d=d2 c2 c2:|

